X:590
T:An dro (L. Jouin)
C:Skolvan
M:4/4
L:1/8
K:C
E2AG A3B|c2Ac B3A|EAAG A3B|ccAc B3B:|c2e2c3e|
e2dc B3G|:E2AG A3B|c2AcB2BG|E2AB d3c|A2GBA4:|


